!!!OTL: Un jeune soldat (137), S. 310f
!!!id: T0306
**kern
*clefG2
*k[f#]
*G:
{8d
8b
8a
=1
4.g
8g
8f#
8g
8a
8g
=2
8f#
8e
4d}
8r
=3
{8d
8g
8a
=4
4.b
8b
8a
8g
8a
8b
=5
4a}
4.r
=6
{8d
8b
8a
=7
4.g
8g
8f#
8g
8a
8g
=8
8f#
8e
4d}
=9
{4dd
8dd
8ee
=10
4.dd
8a
8b
8a
8g
8e
=11
2d}
2r
=12
{4a
8a
8a
4.b
8b
=13
8cc
8b
8a
8g
4b
4g}
=14
{4a
8a
8a
4b
8b
8b
=15
4cc#
8cc#
8cc#
[2dd
=16
8dd]}
=17
{8cc
8b
8a
4.g
8g
=18
8f#
8g
8a
8g
8f#
8e
4d}
=19
{4dd
8dd
8ee
4dd
8a
8b
=20
4a
8g
8e
4d}
=21
{8.d
16d
=22
4d
8.b
16b
4b
8a
8b
=23
4a
8g
8e
4d}
=24
{8.d
16d
=25
4d
8.dd
16dd
4dd
8cc
8b
=26
4a
8e
8f#
4g
8.b
16a
=27
2g}
8r
==
*-
!!!minrhy: 16
!!!meters: 4/4 ]  ZZ[10
!!!cut: Un jeune soldat (137), S. 310f
!!!reg: Luxemburg
!!!trd: Singendes Volk, Esch-Alzette 1937, posth.
!!!rhy1: X_X_X_  X__.X_X_X_X_X_  X_X_X__0   (x2)
!!!rhy2: X_X_X_  X__.X_X_X_X_X_  X__0_.
!!!key: T0306  16  G 4/4 ]  ZZ[10
!!!mod: ACHTTONSKALA DUR ?]  AMBITUS[9
!!!kad: -52-5-515-5-5-51
!!!akz: 1-7-7_322_1-7-7_553-5_2343_234#55_1-7-7_552-5_-532-5_-55211_
!!!fot: 'a__as'a__b__c__d__av_b__e__f__
!!!for: 'a__aw_av_aw_b__c__a__cw_d__dw_
!!!fok: '^__/__^__\__^d_/__\__\__^__Ma_
!! PHRAS[VORWIEGEND AUFTAKTIG]
!!!fkt: historische, Kriegs- und Soldatenlieder
!!!bem: Junglinster, fff Vater des Autors, vor 1900
!! THILL, Mathias:
!! PR[35] 2K[4] 2G[18] 3K[2] 3G[2] 4A[2] 4Ü[0] 5A[2] 6K[0] 6G[0]
!! 7K[0] 7G[0] 8A[0] MEHR[0] SI[31] ABS[49] SR[22] SP[8]
!! ST[9] 2k[4] 2g[27] 3k[4] 3g[0] 4d[0] 4ü[0] 5d[0] 6k[0] 6g[0]
!! 7k[0] 7g[0] 8d[0] mehr[0] si[35] dm[-4] sr[31] sp[4]
!! 1F[75] 2F[17] 3F[0] 4F[0] LF[0] 2P[6] 3P[2] 4P[0] TRI[0] DF[4] AB[53]
!! TF[0] U3K[0] U3[0] U4[0] U4Ü[0] U5[2] U6K[0] U6[0] U7K[0] U7[0]
!! N1[18] N2K[0] N2[22] N3K[0] N3[34] N4[8] N4Ü[0] N5[16] N6K[0] N6[0]
!!!n7k: 0] N7[0] O1[0] O2K[0] O2[0] O3K[0] O3[0] HÖ[0
